src/icons/nginx.svg

<svg viewBox="0 0 24 24" xmlns="http://www.w3.org/2000/svg">
  <path
    d="M11.8009 1.44199C11.8614 1.40706 11.9301 1.38867 11.9999 1.38867C12.0698 1.38867 12.1384 1.40706 12.1989 1.44199L21.0829 6.54799C21.1439 6.58318 21.1945 6.63375 21.2298 6.69464C21.2651 6.75554 21.2837 6.82462 21.2839 6.89499V17.105C21.2838 17.1752 21.2651 17.2442 21.2298 17.3049C21.1945 17.3657 21.1439 17.416 21.0829 17.451L12.1989 22.558C12.1384 22.5929 12.0698 22.6113 11.9999 22.6113C11.9301 22.6113 11.8614 22.5929 11.8009 22.558L2.91694 17.451C2.85601 17.416 2.80535 17.3657 2.77007 17.3049C2.73478 17.2442 2.71612 17.1752 2.71594 17.105V6.89499C2.71594 6.75199 2.79294 6.61999 2.91694 6.54799L11.8009 1.44199ZM8.97594 10.18L14.5069 16.805C14.5069 16.805 15.1569 17.376 16.0839 17.319C17.2039 17.249 17.3159 16.31 17.3159 16.31L17.3169 7.61599L17.3159 7.60799C17.2575 7.32516 17.1035 7.07107 16.8798 6.88845C16.6561 6.70583 16.3763 6.60582 16.0875 6.60523C15.7987 6.60464 15.5185 6.70352 15.294 6.88523C15.0696 7.06694 14.9145 7.3204 14.8549 7.60299L14.8519 7.61599L14.8569 13.723L9.17894 7.03499C9.17894 7.03499 8.72494 6.52299 7.66294 6.63899C6.61894 6.75399 6.50694 7.64799 6.50694 7.64799L6.51694 16.273L6.51894 16.286C6.5657 16.5794 6.71594 16.8464 6.94248 17.0387C7.16902 17.2309 7.45689 17.3358 7.75402 17.3342C8.05114 17.3326 8.33789 17.2248 8.56239 17.0301C8.78688 16.8355 8.93429 16.5669 8.97794 16.273L8.97594 10.18Z"
    fill="#43A047"
  />
</svg>

<svg
  clip-rule="evenodd"
  fill-rule="evenodd"
  stroke-linejoin="round"
  stroke-miterlimit="2"
  viewBox="0 0 24 24"
  xml:space="preserve"
  xmlns="http://www.w3.org/2000/svg"
>
  <path
    d="M11.801 1.442a.398.398 0 0 1 .398 0l8.884 5.106a.402.402 0 0 1 .201.347v10.21a.4.4 0 0 1-.201.346l-8.884 5.107a.398.398 0 0 1-.398 0l-8.884-5.107a.4.4 0 0 1-.201-.346V6.895c0-.143.077-.275.201-.347l8.884-5.106zM8.976 10.18l5.531 6.625s.65.571 1.577.514c1.12-.07 1.232-1.009 1.232-1.009l.001-8.694-.001-.008a1.257 1.257 0 0 0-2.461-.005l-.003.013.005 6.107-5.678-6.688s-.454-.512-1.516-.396c-1.044.115-1.156 1.009-1.156 1.009l.01 8.625.002.013a1.244 1.244 0 0 0 2.459-.013z"
    fill="#43a047"
  />
</svg>
